X:8
T:The Harriot
N:page 13 on manuscript
M:2/4
L:1/8
K:C
ee cd/e/ | ff d2 | BB GA/B/ | (c/B/)c/d/ (e/f/)g/f/ | ee cd/e/ | ff d2 | BB GA/B/ | c2 c2 :||
ggec | aa/b/ c'/b/c'/b/ | ggec | d/c/d/e/ d2 | ggec | aa/b/ c'/b/c'/b/ | ggec | d/c/d/e/ c2 :||

